dist/img/picture/brands/jost.svg

<svg width="100" height="42" viewBox="0 0 100 42" fill="none" xmlns="http://www.w3.org/2000/svg">
<path d="M15.9881 9.65674V21.7766H8.33331V26.9525H25.02V9.65674H15.9881ZM36.4281 14.8319H40.3096V21.7766H36.4281V14.8319ZM27.3963 26.9525H49.3392V9.65674H27.3963V26.9525ZM51.717 9.65674V20.1004H64.3755V21.9693H51.717V26.9518H73.4059V16.5082H60.7585V14.6407H75.7815V26.9518H84.8133V14.8319H91.6674V9.65674H51.717Z" fill="#003C89"/>
<path d="M91.6674 30.5469H8.33331V32.3434H91.6674V30.5469Z" fill="#ED7D04"/>
</svg>

<svg width="100" height="42" viewBox="0 0 100 42" fill="none" xmlns="http://www.w3.org/2000/svg"><path d="M15.988 9.657v12.12H8.333v5.175H25.02V9.657h-9.032zm20.44 5.175h3.882v6.945h-3.882v-6.945zm-9.032 12.12H49.34V9.657H27.396v17.296zM51.717 9.657V20.1h12.659v1.87H51.717v4.982h21.689V16.508H60.758v-1.867h15.023v12.31h9.032v-12.12h6.854V9.658h-39.95z" fill="#003C89"/><path d="M91.667 30.547H8.333v1.796h83.334v-1.796z" fill="#ED7D04"/></svg>
